X: 38467
T: Steam Engine
R: reel
M: 4/4
K: Aminor
|:E2G2 AB2c-|cBcd e2dc|B2f2 eB2e-|e2dB cBAG|
E2G2 AB2c-|cBcd e2dc|B2f2 eB2e-|e2dB A4:|
|:A2e2 fe2B-|BB2c dcBc|A2e2 ge2B-|BB2c dcBc|
A2e2 fe2B-|BB2c dcBc|e2cd2Bc2|AB2GA4:|

